_assets/img/icons/icon-speakermuted-circle-black.svg

<svg width="64" height="63" viewBox="0 0 64 63" xmlns="http://www.w3.org/2000/svg" xmlns:sketch="http://www.bohemiancoding.com/sketch/ns"><title>Group</title><desc>Created with Sketch.</desc><path d="M31.8.3c-17.3 0-31.3 14-31.3 31.3s14 31.3 31.3 31.3 31.3-14 31.3-31.3-14-31.3-31.3-31.3zm0 57.6c-14.6 0-26.4-11.8-26.4-26.4 0-14.6 11.8-26.4 26.4-26.4 14.6 0 26.4 11.8 26.4 26.4 0 14.6-11.8 26.4-26.4 26.4zm14.3-11.9l-28.6-28.6c-.5-.5-1.4-.5-1.9 0s-.5 1.4 0 1.9l28.6 28.6c.5.5 1.4.5 1.9 0s.5-1.4 0-1.9zm-3.5-4.9v-19.4c0-2.4-.5-3.4-2.5-2.2l-11.9 7.2 14.4 14.4zm-20.9-14.3h-1.6c-.5 0-1 .4-1 1v9.8c0 .5.4 1 1 1h8.2l11.7 7.3c.5.3.9.4 1.2.5l-19.5-19.6zm24.4 19.2l-28.6-28.6c-.5-.5-1.4-.5-1.9 0s-.5 1.4 0 1.9l28.6 28.6c.5.5 1.4.5 1.9 0s.5-1.4 0-1.9z" sketch:type="MSShapeGroup"/></svg>

<svg width="64" height="63" viewBox="0 0 64 63" xmlns="http://www.w3.org/2000/svg"><title>Group</title><desc>Created with Sketch.</desc><path d="M31.8.3C14.5.3.5 14.3.5 31.6s14 31.3 31.3 31.3 31.3-14 31.3-31.3S49.1.3 31.8.3zm0 57.6c-14.6 0-26.4-11.8-26.4-26.4 0-14.6 11.8-26.4 26.4-26.4 14.6 0 26.4 11.8 26.4 26.4 0 14.6-11.8 26.4-26.4 26.4zM46.1 46L17.5 17.4c-.5-.5-1.4-.5-1.9 0s-.5 1.4 0 1.9l28.6 28.6c.5.5 1.4.5 1.9 0s.5-1.4 0-1.9zm-3.5-4.9V21.7c0-2.4-.5-3.4-2.5-2.2l-11.9 7.2 14.4 14.4zM21.7 26.8h-1.6c-.5 0-1 .4-1 1v9.8c0 .5.4 1 1 1h8.2L40 45.9c.5.3.9.4 1.2.5L21.7 26.8zM46.1 46L17.5 17.4c-.5-.5-1.4-.5-1.9 0s-.5 1.4 0 1.9l28.6 28.6c.5.5 1.4.5 1.9 0s.5-1.4 0-1.9z"/></svg>
